X:033
L:1/8
M:C|
K:G
((3def) | g2 gf gbag | f3 e fagf | edef gfed | B2 ed ef ((3gfe) |
dBGB d2 ((3Bcd) | egfa g2 fe | [1 dcBA GFGA | B2 G2 G2 :] [2 dBde gfga | b2 g2 g2 |]

